X: 36602
T: Shamrock, The
R: strathspey
M: 4/4
K: Ddorian
|:dcAB cBcA|GEGA c4|dcAB cBcA|GEcE D2 D2:|
Dddd dfed|cde^f gefd|Addd defd|edcB A2 A2|
Ad ~d2 Ad ~d2|cde^f g2 fg|A^fge =fdec|Addc d4||

